X:1
T:In caelis Deus est
T:Daniel Friderici
T:Source : Bicinia sacra---Rostock---J.Richelius---1642. Editor : André Vierendeels (13/07/17).
T:Notes : Original clefs : G2, G2 Editorial accidentals above the staff
T:#
T:In caelis Deus est
T:©
T:©
T:©
C:Daniel Friderici
Z:©
%%score [ 1 2 ]
L:1/8
Q:1/4=120
M:2/2
K:F
V:1 treble nm="Soprano 1" snm="S 1"
V:2 treble nm="Soprano 2" snm="S 2"
V:1
 G8- | G4 g4- | g2 ^fe f4 | g2 g4 fe | d4 c4 | d8 | z4 G4- | G4 g4- | g2 ^fe f4 | g2 c4 _e2 | %10
w: In|_ cae-||lis De- * *|* us|est,|in|_ cae-||lis De- us|
 d4 z2 g2 | G2 A2 B2 AG | F4 D4 | z4 d4 | f2 c2 d2 A2 | B4 F2 f2 | e2 d4 ^c2 | d2 d2 g2 f2 | %18
w: est, in|ter- * * * *|* ris,|in|ter- * * *|* ris, in|ter- ris Cae-|sar, in ter- ris|
 e2 d2 e4 |[M:2/4] d4 :: z2 f2 |[M:2/2] d4 d2 c2- | c2 B4 A2 | B2 d2 c2 c2- | cc B2 A2 G2- | %25
w: Cae- * *|sar:|U-|ter- que nu-|* men ha-|bet, cul- tum de-|* fer u- tri- que|
 G2 ^F2 G2 g2 | f2 _e3 e d2 | c2 B2 A3 G | ^F2 G2 A4 | G8 :| %30
w: _ su- um, cul-|tum de- fer u-|tri- que su- *||um.|
V:2
 z8 | z8 | z8 | G8- | G4 g4- | g2 ^fe f4 |"^#" g2 g4 fe | d4 c4 | d8 | z2 g2 _e2 c2 | %10
w: |||In|_ cae-||lis De- * *||us,|in cae- lis|
"^b" f3 e d2 c2 | d8 | z4 B4 | G2 A2 B2 AG | F4 D4 | z2 d2 f3 e/d/ |"^-natural" c2 d2 e4 | %17
w: De- * * us|est,|in|ter- * * * *|* ris,|in ter- * *|* ris Cae-|
 d2 f2 e2 d2 | ^c2 d3 c/=B/ c2 |[M:2/4] d4 :: z2 d2 |[M:2/2] f4 f2 _e2- | e2 d2 c4 | B2 B2 A2 A2- | %24
w: sar, in ter- ris|Cae- * * * *|sa:|U-|ter- que nu-|* men ha-|bet, cul- tum de-|
 AA G2 ^F2 G2 | A4 B2 G2 | d2 g3 g f2 | _e2 d2 c3 B | AG G4 ^F2 | G8 :| %30
w: * fer u- tri- que|su- um, cul-|tum de- fer u-|tri- que su- *||um.|

